X:574
T:Andy De Jarlis' jig
R:Jig
D:Altan: Island Angel originally...
S:My arrangement from various sources
Z:Transcription, arrangement, chords:Mike Long
M:6/8
L:1/8
K:E
B|\
"E"EGB EGB|"E"EGB "A"c2B|"E"EGB EGB|"D"=DFA B2A|\
"E"EGB EGB|"E"EGB "A"c2a|"B"gfe Bcd|"E"efe e2:|
|:a|\
"E"gfg efg|"A"aga c2e|"B"~f3 fge|dcB c2B|\
"E"gbg efg|"A"aga c2e|"B"fgf Bcd|"E"efe e2:|
